X:34
T:Juizer Tänzli - Jodel. 2000  A-Dur
T:Sepp Herger  (* 16.1.1962)
T:Dirigenten-Notiz  Edi Gasser
C:Unterwalden (CH)
%%partsbox
%P:AB
R:Naturjodel
L:1/4
K:A
M:3/4
[P:A] "gemütliches Walzertempo" c|A2B | c2E | c2B | A2e | B2e | B2e | (c3 | A2)c | A2B | 
c2E | c2B | A2e | B2e | "rit."c2B | (A3 | A)zc | A2B | c2E | c2B | A2e | 
B2e | B2e | (c3 | A2)c | A2B | c2E | c2B | A2e | B2e | c2B | (A3 | A)z||
M:3/4
[P:B] B2e | B2e | (c3 | A3) | B2E | B2E | (c3 | A2)e | B2e | B2e | 
(c3 | A3) | B2E | "rit."c2B | (A3 | A)ze | B2e | B2e | (c3 | A3) | 
B2E | B2E | (c3 | A2)e | B2e | B2e | (c3 | A3) | B2E | "rit."c2B | (A3 | A)z |]
W:
%W:Reihenfolge: A-B
W:notiert Edi Gasser %, nach Angaben von Sepp
W:UJV-Naturjodelsammlung: Code-Nr: 22-18
W:http://www.naturjodler.ch/code 22.htm  (with AUDIO)
%May 23, 2018

